X:1
T:Pols fr R\o{}ros (2)
L:1/8
Q:1/8=320
M:3/4
I:linebreak $
K:C
V:1 treble 
V:1
 d2 d<^c A2 | f2 fd e>f | (3geg (3fdf e>^c | d2{e} d<^c A2 | d2 d<^c A2 | f2 fd e>f | %6
 (3geg (3fdf e>^c |$ ^cd d4 ::[K:D] a2 fa fa | g2 eg eg | f2 (3dfd e>c | d2 df a2 | a2 fa fa | %13
 g2 eg eg | f2 (3dfd e>c |$ c<d d4 :| %16
